tools/download-figma-icons/icons/action/kununu.svg

<svg width="24" height="24" viewBox="0 0 24 24" fill="none" xmlns="http://www.w3.org/2000/svg">
<path fill-rule="evenodd" clip-rule="evenodd" d="M20.8429 2.25H3.15713C2.65613 2.25 2.24963 2.65575 2.24963 3.15675V20.8433C2.24963 21.3435 2.65613 21.75 3.15713 21.75H20.8429C21.3439 21.75 21.7496 21.3435 21.7496 20.8433V3.15675C21.7496 2.65575 21.3439 2.25 20.8429 2.25ZM15.0086 16.974L14.9681 19.4918C14.9681 19.713 14.7851 19.8945 14.5556 19.8945H12.0836C11.8571 19.8945 11.6719 19.713 11.6719 19.4918V16.974H11.6621V16.161C11.6621 15.285 10.9309 14.5718 10.0346 14.5718H9.16089C8.26314 14.5718 7.53339 15.285 7.53339 16.161H7.51614V19.4918C7.51614 19.713 7.33239 19.8945 7.10364 19.8945H4.63089C4.40364 19.8945 4.21914 19.713 4.21914 19.4918V4.5075C4.21914 4.287 4.40364 4.1055 4.63089 4.1055H7.10364C7.33239 4.1055 7.51614 4.287 7.51614 4.5075V11.5793C8.03214 11.403 8.58489 11.3055 9.16089 11.3055H9.99789V11.2958C10.8971 11.2958 11.6261 10.5825 11.6261 9.708L11.6786 8.8935C11.7124 8.70375 11.8796 8.559 12.0836 8.559H14.5556C14.7604 8.559 14.9284 8.70375 14.9621 8.8935H14.9726V9.708C14.9726 10.9358 14.5024 12.057 13.7299 12.9135C14.5234 13.7753 15.0086 14.913 15.0086 16.161V16.974ZM17.8429 7.4895L17.2369 8.082C16.9249 8.388 16.4209 8.391 16.1081 8.08575L16.0084 7.98825C15.6971 7.68375 15.7001 7.191 16.0129 6.88725L16.5784 6.33375L16.6159 6.297C16.6976 6.2175 16.8311 6.2175 16.9121 6.297L16.9886 6.37275C17.0704 6.45225 17.0771 6.58425 16.9954 6.6645L16.3901 7.25475C16.2874 7.3545 16.2874 7.5165 16.3901 7.61625L16.4899 7.71375C16.5919 7.81275 16.7599 7.81575 16.8611 7.716L17.4671 7.12425C17.5481 7.0455 17.6824 7.0485 17.7641 7.128L17.8399 7.203C17.9224 7.28325 17.9246 7.41075 17.8429 7.4895ZM17.8429 5.06775L17.7671 5.142C17.6861 5.2215 17.5489 5.22825 17.4679 5.148L16.8641 4.55625C16.7614 4.45725 16.5949 4.45725 16.4929 4.55625L16.3931 4.65375C16.2919 4.7535 16.2896 4.91925 16.3909 5.01825L16.9961 5.6085C17.0779 5.68875 17.0741 5.8185 16.9924 5.898L16.9166 5.97375C16.8341 6.0525 16.7036 6.05625 16.6234 5.976L16.0159 5.385C15.7031 5.07975 15.7001 4.587 16.0129 4.28175L16.1126 4.185C16.4239 3.8805 16.9286 3.88425 17.2406 4.1895L17.8061 4.74225L17.8429 4.77825C17.9246 4.85775 17.9246 4.9875 17.8429 5.06775ZM19.9946 7.986L19.8964 8.082C19.5836 8.388 19.0781 8.38425 18.7669 8.07825L18.2006 7.5255L18.1631 7.4895C18.0814 7.41075 18.0814 7.28025 18.1631 7.20075L18.2396 7.12575C18.3214 7.047 18.4571 7.04025 18.5381 7.11975L19.1441 7.71075C19.2454 7.8105 19.4126 7.8105 19.5146 7.71075L19.6136 7.614C19.7171 7.5135 19.7179 7.35 19.6159 7.25025L19.0106 6.6585C18.9289 6.579 18.9334 6.45 19.0144 6.369L19.0916 6.29475C19.1734 6.21525 19.3031 6.2115 19.3841 6.291L19.9909 6.8835C20.3036 7.188 20.3066 7.68075 19.9946 7.986ZM19.9969 5.3895L19.4299 5.94225L19.3924 5.97825C19.3106 6.057 19.1786 6.057 19.0961 5.97825L19.0189 5.90175C18.9379 5.82375 18.9326 5.691 19.0136 5.61075L19.6196 5.01975C19.7209 4.92075 19.7209 4.75875 19.6196 4.65975L19.5199 4.5615C19.4179 4.4625 19.2491 4.46025 19.1471 4.56L18.5426 5.15025C18.4601 5.23125 18.3266 5.226 18.2456 5.1465L18.1691 5.073C18.0874 4.992 18.0844 4.8645 18.1654 4.7865L18.7714 4.1925C19.0834 3.88875 19.5881 3.88575 19.9001 4.1895L19.9991 4.28625C20.3119 4.59225 20.3081 5.085 19.9969 5.3895Z" fill="black"/>
</svg>

<svg xmlns="http://www.w3.org/2000/svg" width="24" height="24" fill="none" viewBox="0 0 24 24"><path fill="currentColor" fill-rule="evenodd" d="M20.843 2.25H3.157a.907.907 0 0 0-.907.907v17.686c0 .5.406.907.907.907h17.686a.907.907 0 0 0 .907-.907V3.157a.906.906 0 0 0-.907-.907m-5.834 14.724-.04 2.518a.407.407 0 0 1-.413.402h-2.472a.41.41 0 0 1-.412-.402v-2.518h-.01v-.813c0-.876-.731-1.59-1.627-1.59H9.16c-.898 0-1.628.714-1.628 1.59h-.017v3.33a.41.41 0 0 1-.412.404H4.63a.41.41 0 0 1-.412-.403V4.508c0-.221.185-.402.412-.402h2.473c.228 0 .412.181.412.402v7.071a5.1 5.1 0 0 1 1.645-.274h.837v-.01c.9 0 1.628-.713 1.628-1.587l.053-.815a.41.41 0 0 1 .405-.334h2.472a.41.41 0 0 1 .406.335h.01v.814a4.77 4.77 0 0 1-1.242 3.206 4.78 4.78 0 0 1 1.279 3.247zm2.834-9.484-.606.592a.81.81 0 0 1-1.129.004l-.1-.098a.764.764 0 0 1 .005-1.1l.565-.554.038-.037a.214.214 0 0 1 .296 0l.077.076c.081.08.088.211.006.292l-.605.59a.25.25 0 0 0 0 .361l.1.098c.102.099.27.102.371.002l.606-.592a.216.216 0 0 1 .297.004l.076.075c.082.08.085.208.003.286m0-2.422-.076.074a.22.22 0 0 1-.3.006l-.603-.592a.27.27 0 0 0-.371 0l-.1.098a.257.257 0 0 0-.002.364l.605.59c.082.08.078.21-.004.29l-.075.076a.21.21 0 0 1-.294.002l-.607-.591a.766.766 0 0 1-.003-1.103l.1-.097a.81.81 0 0 1 1.128.005l.565.552.037.036c.082.08.082.21 0 .29m2.152 2.918-.099.096a.81.81 0 0 1-1.13-.004l-.565-.552-.038-.037a.2.2 0 0 1 0-.288l.077-.075c.081-.079.217-.086.298-.006l.606.59c.101.1.269.1.37 0l.1-.096a.253.253 0 0 0 .002-.364l-.605-.591a.2.2 0 0 1 .003-.29l.078-.074a.21.21 0 0 1 .292-.004l.607.592a.766.766 0 0 1 .004 1.103m.002-2.596-.567.552-.038.036a.215.215 0 0 1-.296 0l-.077-.076a.205.205 0 0 1-.005-.291l.606-.591a.25.25 0 0 0 0-.36l-.1-.099a.27.27 0 0 0-.373-.001l-.604.59a.213.213 0 0 1-.297-.004l-.077-.073a.2.2 0 0 1-.004-.287l.606-.593a.813.813 0 0 1 1.13-.003l.098.096a.767.767 0 0 1-.002 1.104" clip-rule="evenodd"/></svg>
